assets/images/logos/barber-logo.svg

<svg width="167" height="49" viewBox="0 0 167 49" fill="none" xmlns="http://www.w3.org/2000/svg">
    <path d="M35.64 0.262984C34.544 0.322109 32.394 1.42764 32.394 3.34966C32.394 5.27543 28.386 5.36552 27.622 5.36552C26.858 5.36552 3.05 6.44008 1.717 6.44008C0.378999 6.44008 0 7.06793 0 7.06793C0 7.06793 0.377999 7.69296 1.717 7.69296C3.051 7.69296 26.858 8.76752 27.622 8.76752C28.387 8.76752 32.394 8.8595 32.394 10.7853C32.394 12.7073 34.544 13.8128 35.64 13.8719C37.75 13.9883 39.546 12.7748 39.546 10.6041C39.546 9.61591 38.994 8.95147 38.51 8.37524C37.837 7.57659 37.161 7.16084 37.018 7.16084C36.783 7.16084 36.481 7.16084 36.303 7.16084C35.254 7.16084 33.057 8.11997 33.057 8.11997C33.057 8.11997 30.294 8.00735 28.507 8.00735C26.716 8.00735 26.095 7.06793 26.095 7.06793C26.095 7.06793 26.716 6.12569 28.507 6.12569C30.293 6.12569 33.057 6.01401 33.057 6.01401C33.057 6.01401 35.254 6.97408 36.303 6.97408C36.481 6.97408 36.783 6.97408 37.018 6.97408C37.161 6.97408 37.837 6.55833 38.51 5.75781C38.995 5.18439 39.546 4.51901 39.546 3.53078C39.546 1.35913 37.75 0.146612 35.64 0.262984ZM35.971 8.09557C37.487 8.09557 38.715 9.25084 38.715 10.6717C38.715 12.0944 37.488 13.2469 35.971 13.2469C34.455 13.2469 33.227 12.0954 33.227 10.6717C33.228 9.2499 34.455 8.09557 35.971 8.09557ZM24.071 7.06793C24.071 7.33727 23.841 7.55406 23.556 7.55406C23.264 7.55406 23.034 7.33727 23.034 7.06793C23.034 6.79765 23.264 6.57992 23.556 6.57992C23.841 6.57992 24.071 6.79765 24.071 7.06793ZM38.715 3.4604C38.715 4.88502 37.488 6.03654 35.971 6.03654C34.455 6.03654 33.227 4.88502 33.227 3.4604C33.227 2.03953 34.454 0.888015 35.971 0.888015C37.488 0.888015 38.715 2.03953 38.715 3.4604Z" fill="black"/>
    <path d="M127.006 3.53078C127.006 4.51901 127.563 5.18345 128.043 5.75781C128.716 6.55833 129.396 6.97408 129.532 6.97408C129.77 6.97408 130.071 6.97408 130.249 6.97408C131.298 6.97408 133.495 6.01401 133.495 6.01401C133.495 6.01401 136.258 6.12569 138.049 6.12569C139.84 6.12569 140.456 7.06793 140.456 7.06793C140.456 7.06793 139.84 8.00735 138.049 8.00735C136.258 8.00735 133.495 8.11997 133.495 8.11997C133.495 8.11997 131.298 7.16084 130.249 7.16084C130.071 7.16084 129.769 7.16084 129.532 7.16084C129.396 7.16084 128.715 7.57659 128.043 8.37524C127.563 8.95147 127.006 9.61591 127.006 10.6041C127.006 12.7748 128.802 13.9883 130.918 13.8719C132.014 13.8128 134.164 12.7073 134.164 10.7853C134.164 8.8595 138.167 8.76752 138.936 8.76752C139.693 8.76752 163.503 7.69296 164.841 7.69296C166.175 7.69296 166.558 7.06793 166.558 7.06793C166.558 7.06793 166.175 6.44008 164.841 6.44008C163.503 6.44008 139.693 5.36552 138.936 5.36552C138.167 5.36552 134.164 5.27636 134.164 3.34966C134.164 1.42764 132.014 0.322109 130.918 0.262984C128.802 0.146612 127.006 1.35913 127.006 3.53078ZM133.324 10.6708C133.324 12.0935 132.097 13.246 130.58 13.246C129.068 13.246 127.841 12.0944 127.841 10.6708C127.841 9.2499 129.068 8.09463 130.58 8.09463C132.097 8.09557 133.324 9.2499 133.324 10.6708ZM143.003 6.57992C143.288 6.57992 143.518 6.79671 143.518 7.06793C143.518 7.33727 143.288 7.55406 143.003 7.55406C142.711 7.55406 142.481 7.33727 142.481 7.06793C142.48 6.79765 142.711 6.57992 143.003 6.57992ZM130.581 0.888015C132.097 0.888015 133.325 2.03953 133.325 3.4604C133.325 4.88502 132.098 6.03654 130.581 6.03654C129.069 6.03654 127.842 4.88502 127.842 3.4604C127.842 2.03953 129.069 0.888015 130.581 0.888015Z" fill="black"/>
    <path d="M149.076 40.3588C147.837 40.3588 147.812 41.072 147.812 41.072C147.812 41.072 148.037 40.7886 148.427 40.7886C148.684 40.7886 149.538 41.0082 149.57 41.6961C149.62 42.7847 148.056 42.9189 148.056 42.9189C145.788 42.9189 146.106 41.3667 144.11 39.6464C142.515 38.2725 141.331 39.6765 141.331 40.3212C141.331 40.6694 141.425 41.3808 141.574 41.6933C142.418 43.4726 145.407 44.275 146.696 44.275C148.685 44.275 150.652 43.3769 150.652 41.8021C150.652 41.2869 150.181 40.3588 149.076 40.3588Z" fill="black"/>
    <path d="M133.994 40.3588C135.233 40.3588 135.258 41.072 135.258 41.072C135.258 41.072 135.033 40.7886 134.643 40.7886C134.386 40.7886 133.532 41.0082 133.501 41.6961C133.451 42.7847 135.016 42.9189 135.016 42.9189C137.283 42.9189 136.966 41.3667 138.961 39.6464C140.555 38.2725 141.74 39.6765 141.74 40.3212C141.74 40.6694 141.646 41.3808 141.497 41.6933C140.653 43.4726 137.664 44.275 136.375 44.275C134.386 44.275 132.419 43.3769 132.419 41.8021C132.418 41.2869 132.889 40.3588 133.994 40.3588Z" fill="black"/>
    <path d="M0.659987 18.7547C55.787 18.7547 110.912 18.7547 166.046 18.7547C166.737 18.7547 166.737 17.2683 166.046 17.2683C79.703 17.2683 24.58 17.2683 0.659987 17.2683C-0.0300134 17.2683 -0.0300134 18.7547 0.659987 18.7547Z" fill="black"/>
    <path d="M0.659987 48.4699C55.787 48.4699 110.912 48.4699 166.046 48.4699C166.737 48.4699 166.737 46.9873 166.046 46.9873C79.703 46.9873 24.58 46.9873 0.659987 46.9873C-0.0300134 46.9873 -0.0300134 48.4699 0.659987 48.4699Z" fill="black"/>
    <path d="M0.18399 44.2892V21.469H3.31499C6.74999 21.469 9.57599 23.7514 9.57599 26.5472C9.57599 27.8592 8.93799 29.0285 7.93499 29.9698C11.126 31.2246 13.315 33.7632 13.315 36.7016C13.315 40.9238 8.84599 44.2892 3.31499 44.2892H0.18399ZM3.31499 24.3783V28.9422H3.73999C5.26099 28.7714 6.53699 27.8301 6.53699 26.5462C6.53699 25.1479 5.01699 24.3783 3.31499 24.3783ZM3.31499 31.7952V41.4653C6.99299 41.4653 10.245 39.5255 10.245 36.7307C10.245 33.934 6.99299 31.7952 3.31499 31.7952Z" fill="#CEB96A"/>
    <path d="M16.204 44.2892H13.043L21.98 21.469L31.038 44.2892H27.877L25.445 38.5842H18.606L16.204 44.2892ZM19.609 35.7312H24.472L21.98 29.0848L19.609 35.7312Z" fill="#CEB96A"/>
    <path d="M32.925 21.469L35.964 21.4972C36.116 21.469 36.269 21.469 36.45 21.469C41.496 21.469 45.569 25.2915 45.569 30.0271C45.569 33.1081 43.837 35.7894 41.253 37.3013L45.539 44.2901H42.013L38.396 38.3852C37.758 38.5279 37.12 38.5851 36.451 38.5851H35.965V44.2901H32.925V21.469ZM35.964 24.4065V35.7593H36.45C39.794 35.7593 42.529 33.2207 42.529 30.0824C42.529 26.9451 39.794 24.3774 36.45 24.3774C36.269 24.3783 36.117 24.3783 35.964 24.4065Z" fill="#CEB96A"/>
    <path d="M48.856 44.2892V21.469H51.987C55.422 21.469 58.248 23.7514 58.248 26.5472C58.248 27.8592 57.61 29.0285 56.607 29.9698C59.798 31.2246 61.987 33.7632 61.987 36.7016C61.987 40.9238 57.518 44.2892 51.987 44.2892H48.856ZM51.987 24.3783V28.9422H52.412C53.933 28.7714 55.209 27.8301 55.209 26.5462C55.208 25.1479 53.689 24.3783 51.987 24.3783ZM51.987 31.7952V41.4653C55.665 41.4653 58.917 39.5255 58.917 36.7307C58.916 33.934 55.664 31.7952 51.987 31.7952Z" fill="#CEB96A"/>
    <path d="M64.117 21.469H77.795V24.322H67.156V35.7312H74.756V38.5842H67.156V41.4372H77.825V44.2901H64.117V21.469Z" fill="#CEB96A"/>
    <path d="M81.141 21.469L84.18 21.4972C84.332 21.469 84.484 21.469 84.666 21.469C89.712 21.469 93.785 25.2915 93.785 30.0271C93.785 33.1081 92.053 35.7894 89.469 37.3013L93.755 44.2901H90.229L86.612 38.3852C85.974 38.5279 85.336 38.5851 84.667 38.5851H84.181V44.2901H81.142V21.469H81.141ZM84.18 24.4065V35.7593H84.666C88.01 35.7593 90.745 33.2207 90.745 30.0824C90.745 26.9451 88.01 24.3774 84.666 24.3774C84.484 24.3783 84.332 24.3783 84.18 24.4065Z" fill="#CEB96A"/>
    <path d="M106.219 23.1798L103.97 24.8625C103.453 24.3492 102.724 24.0066 101.842 24.0066C100.262 24.0066 98.863 25.0624 98.863 26.4889V26.6316C98.863 27.8863 99.805 28.7431 101.629 28.8567C108.62 29.2556 111.842 32.3366 111.842 36.4162V36.7015C111.691 40.9237 107.648 44.2891 102.815 44.2891C100.17 44.2891 97.8 43.2333 96.28 41.6079L98.621 39.9252C99.654 41.0091 101.143 41.5506 102.906 41.5506C106.098 41.5506 108.834 39.4681 108.925 36.6442V36.4443C108.925 32.6219 104.913 31.9086 101.447 31.5952C98.225 31.3099 95.916 29.4273 95.916 26.717V26.5743C96.007 23.7504 98.742 21.468 101.934 21.468C103.666 21.469 105.216 22.125 106.219 23.1798Z" fill="#CEB96A"/>
    <path d="M126.101 38.5842H116.982V44.2892H113.943V21.469H116.982V35.7312H126.101V21.469H129.14V44.2892H126.101V38.5842Z" fill="#CEB96A"/>
    <path d="M49.731 13.0849C46.167 13.0849 43.264 10.43 43.264 7.08522C43.264 3.72264 46.166 1.01605 49.731 1.01605C49.97 1.01605 50.209 1.03295 50.448 1.06767V2.43035C50.209 2.39562 49.97 2.37873 49.731 2.37873C46.957 2.37873 44.715 4.48187 44.715 7.08616C44.715 9.67168 46.956 11.7758 49.731 11.7758V8.75854H48.28V7.46437H51.182V13.0849H49.731Z" fill="#003C23"/>
    <path d="M58.056 1.06879V2.37891H53.922V8.75779H57.339V10.0679H53.922V11.775H58.056V13.0851H52.471V1.06879H58.056Z" fill="#003C23"/>
    <path d="M66.233 1.06879V13.0861H64.782L60.795 4.29248V13.0861H59.344V1.06879H60.795L64.782 9.86238V1.06879H66.233Z" fill="#003C23"/>
    <path d="M71.673 13.0861H70.203V2.37989H67.52V1.06976H74.354V2.37989H71.672V13.0861H71.673Z" fill="#003C23"/>
    <path d="M77.002 1.06879V11.776H81.136V13.0861H75.551V1.06879H77.002Z" fill="#003C23"/>
    <path d="M88.009 1.06879V2.37891H83.875V8.75779H87.292V10.0679H83.875V11.775H88.009V13.0851H82.424V1.06879H88.009Z" fill="#003C23"/>
    <path d="M90.748 1.06879L93.375 8.84506L96.003 1.06879H97.454V13.0861H96.003V5.36235L93.375 13.1386L90.748 5.36235V13.0861H89.297V1.06879H90.748Z" fill="#003C23"/>
    <path d="M104.328 1.06879V2.37891H100.194V8.75779H103.611V10.0679H100.194V11.775H104.328V13.0851H98.743V1.06879H104.328Z" fill="#003C23"/>
    <path d="M112.505 1.06879V13.0861H111.053L107.067 4.29248V13.0861H105.616V1.06879H107.067L111.053 9.86238V1.06879H112.505Z" fill="#003C23"/>
    <path d="M115.593 1.93171C115.593 2.10448 115.519 2.27631 115.408 2.44908L114.82 3.43219H114.177L114.527 2.75988C114.104 2.6904 113.792 2.34579 113.792 1.93171C113.792 1.44813 114.196 1.06879 114.692 1.06879C115.188 1.06879 115.593 1.44907 115.593 1.93171Z" fill="#003C23"/>
    <path d="M119.526 5.58553C121.345 6.60285 123.164 7.56855 123.164 9.80965C123.164 11.5168 121.713 13.1375 119.82 13.1375C118.112 13.1375 116.513 11.8443 116.513 10.1888H117.964C117.964 11.0682 118.883 11.7748 119.819 11.7748C120.884 11.7748 121.712 10.7575 121.712 9.80871C121.712 6.72204 116.513 7.32548 116.513 3.56779C116.513 2.10188 117.836 1.01605 119.361 1.01605C120.886 1.01605 122.098 2.10188 122.098 3.56779H120.647C120.647 2.89584 120.132 2.37779 119.361 2.37779C118.59 2.37779 117.965 2.8949 117.965 3.56779C117.964 4.60294 118.681 5.10315 119.526 5.58553Z" fill="#003C23"/>
    <path d="M141.552 36.9708C136.971 36.9708 133.243 33.4731 133.243 29.173C133.243 24.8738 136.971 21.376 141.552 21.376C146.133 21.376 149.861 24.8738 149.861 29.173C149.861 33.4731 146.133 36.9708 141.552 36.9708ZM141.552 24.1915C138.625 24.1915 136.243 26.426 136.243 29.173C136.243 31.9199 138.625 34.1554 141.552 34.1554C144.479 34.1554 146.861 31.9208 146.861 29.173C146.861 26.426 144.479 24.1915 141.552 24.1915Z" fill="#003C23"/>
    <path d="M153.777 21.468L156.816 21.4962C156.968 21.468 157.12 21.468 157.302 21.468C162.348 21.468 166.421 25.2905 166.421 30.0261C166.421 34.7616 162.348 38.5841 157.302 38.5841H156.816V44.2891H153.777V21.468ZM156.816 24.4064V35.7592H157.302C160.646 35.7592 163.381 33.2206 163.381 30.0824C163.381 26.945 160.646 24.3773 157.302 24.3773C157.12 24.3773 156.968 24.3773 156.816 24.4064Z" fill="#CEB96A"/>
</svg>

<svg xmlns="http://www.w3.org/2000/svg" width="167" height="49" fill="none">
    <path fill="#000" d="M35.64.263c-1.096.06-3.246 1.165-3.246 3.087 0 1.925-4.008 2.016-4.772 2.016-.764 0-24.572 1.074-25.905 1.074C.379 6.44 0 7.068 0 7.068s.378.625 1.717.625c1.334 0 25.141 1.075 25.905 1.075.765 0 4.772.091 4.772 2.017 0 1.922 2.15 3.028 3.246 3.087 2.11.116 3.906-1.097 3.906-3.268 0-.988-.552-1.653-1.036-2.229-.673-.798-1.349-1.214-1.492-1.214h-.715c-1.049 0-3.246.959-3.246.959s-2.763-.113-4.55-.113c-1.791 0-2.412-.94-2.412-.94s.621-.941 2.412-.941c1.786 0 4.55-.112 4.55-.112s2.197.96 3.246.96h.715c.143 0 .819-.416 1.492-1.216.485-.574 1.036-1.239 1.036-2.227 0-2.172-1.796-3.384-3.906-3.268Zm.331 7.833c1.516 0 2.744 1.155 2.744 2.576 0 1.422-1.227 2.575-2.744 2.575-1.516 0-2.744-1.152-2.744-2.575.001-1.422 1.228-2.576 2.744-2.576Zm-11.9-1.028a.5.5 0 0 1-.515.486c-.292 0-.522-.217-.522-.486 0-.27.23-.488.522-.488.285 0 .515.218.515.488ZM38.715 3.46c0 1.425-1.227 2.577-2.744 2.577-1.516 0-2.744-1.152-2.744-2.577 0-1.42 1.227-2.572 2.744-2.572 1.517 0 2.744 1.152 2.744 2.572ZM127.006 3.53c0 .989.557 1.653 1.037 2.228.673.8 1.353 1.216 1.489 1.216h.717c1.049 0 3.246-.96 3.246-.96s2.763.112 4.554.112c1.791 0 2.407.942 2.407.942s-.616.94-2.407.94-4.554.112-4.554.112-2.197-.96-3.246-.96h-.717c-.136 0-.817.417-1.489 1.215-.48.576-1.037 1.24-1.037 2.23 0 2.17 1.796 3.383 3.912 3.267 1.096-.06 3.246-1.165 3.246-3.087 0-1.925 4.003-2.017 4.772-2.017.757 0 24.567-1.075 25.905-1.075 1.334 0 1.717-.625 1.717-.625s-.383-.628-1.717-.628c-1.338 0-25.148-1.074-25.905-1.074-.769 0-4.772-.09-4.772-2.016 0-1.922-2.15-3.028-3.246-3.087-2.116-.116-3.912 1.096-3.912 3.268Zm6.318 7.14c0 1.424-1.227 2.576-2.744 2.576-1.512 0-2.739-1.152-2.739-2.575 0-1.421 1.227-2.576 2.739-2.576 1.517 0 2.744 1.155 2.744 2.576Zm9.679-4.09a.5.5 0 0 1 .515.488.5.5 0 0 1-.515.486c-.292 0-.522-.217-.522-.486-.001-.27.23-.488.522-.488ZM130.581.888c1.516 0 2.744 1.152 2.744 2.572 0 1.425-1.227 2.577-2.744 2.577-1.512 0-2.739-1.152-2.739-2.577 0-1.42 1.227-2.572 2.739-2.572ZM149.076 40.359c-1.239 0-1.264.713-1.264.713s.225-.283.615-.283c.257 0 1.111.22 1.143.907.05 1.089-1.514 1.223-1.514 1.223-2.268 0-1.95-1.552-3.946-3.273-1.595-1.373-2.779.03-2.779.675 0 .348.094 1.06.243 1.372.844 1.78 3.833 2.582 5.122 2.582 1.989 0 3.956-.898 3.956-2.473 0-.515-.471-1.443-1.576-1.443Z"/>
    <path fill="#000" d="M133.994 40.359c1.239 0 1.264.713 1.264.713s-.225-.283-.615-.283c-.257 0-1.111.22-1.142.907-.05 1.089 1.515 1.223 1.515 1.223 2.267 0 1.95-1.552 3.945-3.273 1.594-1.373 2.779.03 2.779.675 0 .348-.094 1.06-.243 1.372-.844 1.78-3.833 2.582-5.122 2.582-1.989 0-3.956-.898-3.956-2.473-.001-.515.47-1.443 1.575-1.443ZM.66 18.755h165.386c.691 0 .691-1.487 0-1.487H.66c-.69 0-.69 1.487 0 1.487ZM.66 48.47h165.386c.691 0 .691-1.483 0-1.483H.66c-.69 0-.69 1.483 0 1.483Z"/>
    <path fill="#CEB96A" d="M.184 44.29V21.468h3.131c3.435 0 6.261 2.282 6.261 5.078 0 1.312-.638 2.482-1.641 3.423 3.191 1.255 5.38 3.793 5.38 6.732 0 4.222-4.469 7.587-10 7.587H.184Zm3.131-19.912v4.564h.425c1.521-.17 2.797-1.112 2.797-2.396 0-1.398-1.52-2.168-3.222-2.168Zm0 7.417v9.67c3.678 0 6.93-1.94 6.93-4.734 0-2.797-3.252-4.936-6.93-4.936ZM16.204 44.29h-3.161l8.937-22.821 9.058 22.82h-3.161l-2.432-5.705h-6.839l-2.402 5.705Zm3.405-8.559h4.863l-2.492-6.646-2.371 6.646ZM32.925 21.469l3.039.028c.152-.028.305-.028.486-.028 5.046 0 9.119 3.822 9.119 8.558 0 3.081-1.732 5.762-4.316 7.274l4.286 6.99h-3.526l-3.617-5.906c-.638.143-1.276.2-1.945.2h-.486v5.705h-3.04V21.47Zm3.039 2.938v11.352h.486c3.344 0 6.079-2.538 6.079-5.677 0-3.137-2.735-5.705-6.079-5.705-.181.001-.333.001-.486.03ZM48.856 44.29V21.468h3.131c3.435 0 6.261 2.282 6.261 5.078 0 1.312-.638 2.482-1.641 3.423 3.191 1.255 5.38 3.793 5.38 6.732 0 4.222-4.469 7.587-10 7.587h-3.131Zm3.131-19.912v4.564h.425c1.521-.17 2.797-1.112 2.797-2.396-.001-1.398-1.52-2.168-3.222-2.168Zm0 7.417v9.67c3.678 0 6.93-1.94 6.93-4.734-.001-2.797-3.253-4.936-6.93-4.936ZM64.117 21.469h13.678v2.853H67.156v11.41h7.6v2.852h-7.6v2.853h10.669v2.853H64.117V21.47ZM81.141 21.469l3.039.028c.152-.028.304-.028.486-.028 5.046 0 9.119 3.822 9.119 8.558 0 3.081-1.732 5.762-4.316 7.274l4.286 6.99h-3.526l-3.617-5.906c-.638.143-1.276.2-1.945.2h-.486v5.705h-3.039V21.47h-.001Zm3.039 2.938v11.352h.486c3.344 0 6.079-2.538 6.079-5.677 0-3.137-2.735-5.705-6.079-5.705-.182.001-.334.001-.486.03ZM106.219 23.18l-2.249 1.683a2.972 2.972 0 0 0-2.128-.856c-1.58 0-2.979 1.055-2.979 2.482v.143c0 1.254.942 2.111 2.766 2.225 6.991.399 10.213 3.48 10.213 7.56v.285c-.151 4.222-4.194 7.587-9.027 7.587-2.645 0-5.015-1.056-6.535-2.681l2.341-1.683c1.033 1.084 2.522 1.626 4.285 1.626 3.192 0 5.928-2.083 6.019-4.907v-.2c0-3.822-4.012-4.535-7.478-4.849-3.222-.285-5.531-2.168-5.531-4.878v-.143c.091-2.824 2.826-5.106 6.018-5.106 1.732.001 3.282.657 4.285 1.712ZM126.101 38.584h-9.119v5.705h-3.039V21.47h3.039v14.262h9.119V21.47h3.039v22.82h-3.039v-5.705Z"/>
    <path fill="#003C23" d="M49.731 13.085c-3.564 0-6.467-2.655-6.467-6 0-3.362 2.902-6.069 6.467-6.069.239 0 .478.017.717.052V2.43a4.979 4.979 0 0 0-.717-.051c-2.774 0-5.016 2.103-5.016 4.707 0 2.586 2.241 4.69 5.016 4.69V8.759H48.28V7.464h2.902v5.62h-1.451ZM58.056 1.069v1.31h-4.134v6.379h3.417v1.31h-3.417v1.707h4.134v1.31h-5.585V1.07h5.585ZM66.233 1.069v12.017h-1.451l-3.987-8.794v8.794h-1.451V1.07h1.451l3.987 8.793V1.07h1.451ZM71.673 13.086h-1.47V2.38H67.52V1.07h6.834v1.31h-2.682v10.706h.001ZM77.002 1.069v10.707h4.134v1.31h-5.585V1.07h1.451ZM88.009 1.069v1.31h-4.134v6.379h3.417v1.31h-3.417v1.707h4.134v1.31h-5.585V1.07h5.585ZM90.748 1.069l2.627 7.776 2.628-7.776h1.451v12.017h-1.451V5.362l-2.628 7.777-2.627-7.777v7.724h-1.451V1.07h1.451ZM104.328 1.069v1.31h-4.134v6.379h3.417v1.31h-3.417v1.707h4.134v1.31h-5.585V1.07h5.585ZM112.505 1.069v12.017h-1.452l-3.986-8.794v8.794h-1.451V1.07h1.451l3.986 8.793V1.07h1.452ZM115.593 1.932c0 .172-.074.344-.185.517l-.588.983h-.643l.35-.672c-.423-.07-.735-.414-.735-.828 0-.484.404-.863.9-.863s.901.38.901.863ZM119.526 5.586c1.819 1.017 3.638 1.983 3.638 4.224 0 1.707-1.451 3.327-3.344 3.327-1.708 0-3.307-1.293-3.307-2.948h1.451c0 .88.919 1.586 1.855 1.586 1.065 0 1.893-1.018 1.893-1.966 0-3.087-5.199-2.484-5.199-6.241 0-1.466 1.323-2.552 2.848-2.552s2.737 1.086 2.737 2.552h-1.451c0-.672-.515-1.19-1.286-1.19s-1.396.517-1.396 1.19c-.001 1.035.716 1.535 1.561 2.018ZM141.552 36.97c-4.581 0-8.309-3.497-8.309-7.797s3.728-7.797 8.309-7.797c4.581 0 8.309 3.498 8.309 7.797 0 4.3-3.728 7.798-8.309 7.798Zm0-12.778c-2.927 0-5.309 2.234-5.309 4.981s2.382 4.982 5.309 4.982 5.309-2.234 5.309-4.982c0-2.747-2.382-4.981-5.309-4.981Z"/>
    <path fill="#CEB96A" d="m153.777 21.468 3.039.028c.152-.028.304-.028.486-.028 5.046 0 9.119 3.823 9.119 8.558 0 4.736-4.073 8.558-9.119 8.558h-.486v5.705h-3.039V21.468Zm3.039 2.938V35.76h.486c3.344 0 6.079-2.538 6.079-5.677 0-3.137-2.735-5.705-6.079-5.705-.182 0-.334 0-.486.03Z"/>
</svg>
